public/logos/onlyfans.svg

<svg width="20" height="20" viewBox="0 0 20 20" fill="none" xmlns="http://www.w3.org/2000/svg">
  <rect width="20" height="20" rx="4" fill="white" />
  <path
    d="M7.33339 5.00012C4.38936 5.00011 2.00002 7.38943 2 10.3335C1.99998 13.2775 4.38931 15.6668 7.33334 15.6669C10.2774 15.6669 12.6667 13.2775 12.6667 10.3335C12.6667 7.38949 10.2774 5.00014 7.33339 5.00012ZM7.33336 11.9335C6.44803 11.9335 5.73335 11.2188 5.73336 10.3335C5.73336 9.44812 6.44805 8.73347 7.33337 8.73348C8.2187 8.73348 8.93338 9.44814 8.93338 10.3335C8.93337 11.2188 8.21868 11.9335 7.33336 11.9335Z"
    fill="#00AEEF" />
  <path
    d="M13.3281 9.00003C14.683 9.38987 16.2828 9.00005 16.2828 9.00005C15.8187 11.0268 14.3468 12.296 12.2241 12.4507C11.4081 14.3441 9.52537 15.6668 7.33337 15.6667L8.9334 10.5814C10.5781 5.35404 11.4211 4.99998 15.3219 5L18.0001 5.00001C17.5521 6.97334 16.0081 8.48096 13.3281 9.00003Z"
    fill="#008CCF" />
</svg>

<svg xmlns="http://www.w3.org/2000/svg" fill="none" viewBox="0 0 20 20">
  <rect width="20" height="20" fill="#fff" rx="4" />
  <path fill="#00AEEF"
    d="M7.333 5A5.335 5.335 0 0 0 2 10.334a5.335 5.335 0 0 0 5.333 5.333 5.335 5.335 0 0 0 5.334-5.333A5.335 5.335 0 0 0 7.333 5Zm0 6.934c-.885 0-1.6-.715-1.6-1.6 0-.886.715-1.6 1.6-1.6.886 0 1.6.714 1.6 1.6 0 .885-.714 1.6-1.6 1.6Z" />
  <path fill="#008CCF"
    d="M13.328 9c1.355.39 2.955 0 2.955 0-.464 2.027-1.936 3.296-4.059 3.45a5.322 5.322 0 0 1-4.89 3.217l1.6-5.086C10.577 5.354 11.42 5 15.321 5H18c-.448 1.973-1.992 3.481-4.672 4Z" />
</svg>
